sprites/logos/metro.svg

<?xml version="1.0" encoding="UTF-8" standalone="no"?>
<!-- Created with Inkscape (http://www.inkscape.org/) -->

<svg
   xmlns:dc="http://purl.org/dc/elements/1.1/"
   xmlns:cc="http://creativecommons.org/ns#"
   xmlns:rdf="http://www.w3.org/1999/02/22-rdf-syntax-ns#"
   xmlns:svg="http://www.w3.org/2000/svg"
   xmlns="http://www.w3.org/2000/svg"
   xmlns:sodipodi="http://sodipodi.sourceforge.net/DTD/sodipodi-0.dtd"
   xmlns:inkscape="http://www.inkscape.org/namespaces/inkscape"
   width="64"
   height="48"
   id="svg16758"
   sodipodi:version="0.32"
   inkscape:version="0.91 r13725"
   sodipodi:docname="metro.svg"
   inkscape:output_extension="org.inkscape.output.svg.inkscape"
   version="1.0">
  <defs
     id="defs16760">
    <inkscape:perspective
       sodipodi:type="inkscape:persp3d"
       inkscape:vp_x="0 : 526.18109 : 1"
       inkscape:vp_y="0 : 1000 : 0"
       inkscape:vp_z="744.09448 : 526.18109 : 1"
       inkscape:persp3d-origin="372.04724 : 350.78739 : 1"
       id="perspective16766" />
  </defs>
  <sodipodi:namedview
     id="base"
     pagecolor="#ffffff"
     bordercolor="#666666"
     borderopacity="1.0"
     inkscape:pageopacity="0.0"
     inkscape:pageshadow="2"
     inkscape:zoom="17.125"
     inkscape:cx="32"
     inkscape:cy="24"
     inkscape:document-units="px"
     inkscape:current-layer="layer1"
     showgrid="false"
     inkscape:window-width="1920"
     inkscape:window-height="1007"
     inkscape:window-x="0"
     inkscape:window-y="27"
     fit-margin-top="0"
     fit-margin-left="0"
     fit-margin-right="0"
     fit-margin-bottom="0"
     inkscape:window-maximized="1" />
  <metadata
     id="metadata16763">
    <rdf:RDF>
      <cc:Work
         rdf:about="">
        <dc:format>image/svg+xml</dc:format>
        <dc:type
           rdf:resource="http://purl.org/dc/dcmitype/StillImage" />
        <dc:title></dc:title>
      </cc:Work>
    </rdf:RDF>
  </metadata>
  <g
     inkscape:label="Ebene 1"
     inkscape:groupmode="layer"
     id="layer1"
     transform="translate(-539.60804,-57.50986)">
    <g
       id="g4848"
       transform="matrix(0,-6.5555859,-6.5506653,0,603.60804,81.50986)">
      <path
         d="M 0,0 3.661,4.884 0,9.77 -3.661,4.882 0,0"
         style="fill:#ed1b2d;fill-opacity:1;fill-rule:nonzero;stroke:none"
         id="path4850"
         inkscape:connector-curvature="0" />
    </g>
    <g
       id="g4852"
       transform="matrix(0,-6.5555859,-6.5506653,0,559.54827,92.070909)">
      <path
         d="m 0,0 3.22,0 0,-1.275 -2.008,-0.568 2.008,-0.568 0,-1.274 -3.22,0 0,0.948 0.984,0 0.501,-0.014 0.582,-0.054 0,0.01 L 0,-2.21 l 0,0.734 2.067,0.586 0,0.009 L 1.592,-0.926 1.091,-0.948 0,-0.948 0,0"
         style="fill:#ffffff;fill-opacity:1;fill-rule:nonzero;stroke:none"
         id="path4854"
         inkscape:connector-curvature="0" />
    </g>
  </g>
</svg>

<?xml version="1.0" encoding="UTF-8" standalone="no"?>
<!-- Created with Inkscape (http://www.inkscape.org/) -->
<svg
   xmlns:dc="http://purl.org/dc/elements/1.1/"
   xmlns:cc="http://creativecommons.org/ns#"
   xmlns:rdf="http://www.w3.org/1999/02/22-rdf-syntax-ns#"
   xmlns:svg="http://www.w3.org/2000/svg"
   xmlns="http://www.w3.org/2000/svg"
   xmlns:sodipodi="http://sodipodi.sourceforge.net/DTD/sodipodi-0.dtd"
   xmlns:inkscape="http://www.inkscape.org/namespaces/inkscape"
   width="439.96689"
   height="329.72748"
   id="svg16758"
   sodipodi:version="0.32"
   inkscape:version="0.46"
   sodipodi:docname="barcelona.svg"
   inkscape:output_extension="org.inkscape.output.svg.inkscape"
   version="1.0">
  <defs
     id="defs16760">
    <inkscape:perspective
       sodipodi:type="inkscape:persp3d"
       inkscape:vp_x="0 : 526.18109 : 1"
       inkscape:vp_y="0 : 1000 : 0"
       inkscape:vp_z="744.09448 : 526.18109 : 1"
       inkscape:persp3d-origin="372.04724 : 350.78739 : 1"
       id="perspective16766" />
  </defs>
  <sodipodi:namedview
     id="base"
     pagecolor="#ffffff"
     bordercolor="#666666"
     borderopacity="1.0"
     inkscape:pageopacity="0.0"
     inkscape:pageshadow="2"
     inkscape:zoom="1.1463225"
     inkscape:cx="230.65476"
     inkscape:cy="209.97905"
     inkscape:document-units="px"
     inkscape:current-layer="layer1"
     showgrid="false"
     inkscape:window-width="640"
     inkscape:window-height="667"
     inkscape:window-x="154"
     inkscape:window-y="203" />
  <metadata
     id="metadata16763">
    <rdf:RDF>
      <cc:Work
         rdf:about="">
        <dc:format>image/svg+xml</dc:format>
        <dc:type
           rdf:resource="http://purl.org/dc/dcmitype/StillImage" />
      </cc:Work>
    </rdf:RDF>
  </metadata>
  <g
     inkscape:label="Ebene 1"
     inkscape:groupmode="layer"
     id="layer1"
     transform="translate(-539.60804,224.21762)">
    <g
       id="g4848"
       transform="matrix(0,-45.032434,-45.032434,0,979.57492,-59.353881)">
      <path
         d="M 0,0 L 3.661,4.884 L 0,9.77 L -3.661,4.882 L 0,0"
         style="fill:#ed1b2d;fill-opacity:1;fill-rule:nonzero;stroke:none"
         id="path4850" />
    </g>
    <g
       id="g4852"
       transform="matrix(0,-45.032434,-45.032434,0,676.68677,13.193371)">
      <path
         d="M 0,0 L 3.22,0 L 3.22,-1.275 L 1.212,-1.843 L 3.22,-2.411 L 3.22,-3.685 L 0,-3.685 L 0,-2.737 L 0.984,-2.737 L 1.485,-2.751 L 2.067,-2.805 L 2.067,-2.795 L 0,-2.21 L 0,-1.476 L 2.067,-0.89 L 2.067,-0.881 L 1.592,-0.926 L 1.091,-0.948 L 0,-0.948 L 0,0"
         style="fill:#ffffff;fill-opacity:1;fill-rule:nonzero;stroke:none"
         id="path4854" />
    </g>
  </g>
</svg>
